X: 26880
T: Minnesota, The
R: mazurka
M: 3/4
K: Amajor
E2|:A2 c>A c>e|A2 (3cBA c>d|(3efe f>e d<c|B2- B>c B>G|
E2 G>E G>B|E2 G>E (3GAB|e2 e>d c<B|1 c2- c>d c>B:|2 A2- A>d||
|:(3dcB|A2 (3cBA c>e|a4 g2|a2 b<a g<a|f4 d2|
[1 G2 B<G B>e|g2- g>a g>f|e2 f<e ^d<e|c2- c>d:|
[2 G2 (3BAG B>e|g2 g>a g<f|e2 (3fed (3dcB|A4||

